X:67
T:Female cabin boy - Mortimore
%%VWML:SBG-1-2-210-0
F:http://www.vwml.org/record/SBG/1/2/210
Z:Original Sibelius transcriptions by M. & S. Graebe
M:4/4
I:linebreak $
K:C
V:1 treble nm="P1"
V:1
 G | G B d e | d B A G | G B d e | d3 [Bd] |$ c c A c | B B G B | A G G F | G3 x | %9
T:Female cabin boy - Mortimore - second part
F:http://www.vwml.org/record/SBG/1/2/210
Z:Original Sibelius transcriptions by M. & S. Graebe
M:4/4
I:linebreak $
K:C
V:1 treble nm="P1"
V:1
 G | G B B B | B A A A | A B c c | B3/2 G/B/ |$ d d g f | e d B G | A A B A | G3 z | %9

